src/assets/svg/checkmark.svg

<svg fill="none" height="11" viewBox="0 0 14 11" width="14" xmlns="http://www.w3.org/2000/svg"><path d="m12.0612.367846c.4221-.4675003 1.1308-.492766 1.583-.056432.4522.436333.4766 1.169036.0546 1.636536l-7.84001 8.68415c-.40948.4536-1.09201.4929-1.54766.0891l-3.919997-3.47364c-.4696439-.41618-.524033-1.14715-.121481-1.63269.402553-.48553 1.109608-.54176 1.579248-.12559l3.10486 2.75135z" fill="#fff"/></svg>

<svg width="14" height="11" viewBox="0 0 14 11" fill="none" xmlns="http://www.w3.org/2000/svg">
<path d="M12.0612 0.367846C12.4833 -0.0996543 13.192 -0.12492 13.6442 0.311414C14.0964 0.747747 14.1208 1.48045 13.6988 1.94795L5.85879 10.6321C5.44931 11.0857 4.76678 11.125 4.31113 10.7212L0.391133 7.24756C-0.0785109 6.83138 -0.1329 6.10041 0.269652 5.61487C0.672205 5.12934 1.37926 5.07311 1.8489 5.48928L4.95376 8.24063L12.0612 0.367846Z" fill="white"/>
</svg>
